X: 52
T:Leitrim Fancy, The
M:C|
L:1/8
R:hornpipe
N:Bars 2 and 6 also played |ADGB A2de|
Z:id:hn-hornpipe-2
K:D
AG|:"D"FAEA DEFG|"G"(3ABA GB "D"A2de|fdge "A"agec|"D"dBAF "G"GBAG|
"D"FAEA DEFG|"G"(3ABA GB "D"A2de|!
fdge "A"agec|[1"A"Addc "D"d2 AG:|[2"A"Addc "D"d2 ag||"D"fefg afeg|fefg a
2 (3efg|"A"agec "D"dfec|
!
dcAF "Em"G3e|"D"fefg afeg|fefg a2 (3efg|"A"agec "D"dfec|[1"A"Addc "D"d2
ag:|[2"A"Addc "D"d4|]

